X: 3778
T: Bishop Of Bangor's, The
R: jig
M: 6/8
K: Gmajor
B|:efg fge|^def B2e|dcB AGA|1 B3 B2 B:|2 B3 B2B/c/||
dBG cAF|BGE AFD|GAB A2G|G3 Gef|
ge^c af^d|bgb af^d|efg Be^d|e3 e2||

